!!!!SEGMENT: Fsc2003-Elisabeth_beatissima.krn
!!!id: Fsc2003
!!!AGN: Motet
!!!SCT: Seay (1979)
!!!voices: 4
!!!COM: Costanzo Festa
!!!OTL: Elisabeth beatissima
**kern	**kern	**kern	**kern
*part4	*part3	*part2	*part1
*staff4	*staff3	*staff2	*staff1
*I"Bassus	*I"Tenor	*I"Altus	*I"Superius
*I'B	*I'T	*I'A	*I'S
*clefF4	*clefGv2	*clefG2	*clefG2
*k[]	*k[]	*k[]	*k[]
*C:	*C:	*C:	*C:
*M2/1	*M2/1	*M2/1	*M2/1
*met(C|)	*met(C|)	*met(C|)	*met(C|)
!!section: Prima pars: Elisabeth beatissima
!!!OMD: Prima pars: Elisabeth beatissima
=1	=1	=1	=1
0r	0d	0r	0r
=2	=2	=2	=2
0r	1d	0r	0r
.	1c	.	.
=3	=3	=3	=3
0r	2d	0r	0a
.	1f	.	.
.	2d	.	.
=4	=4	=4	=4
0r	1f	0r	1a
.	1e	.	1g
=5	=5	=5	=5
0r	1A	0a	2a
.	.	.	1cc
.	2r	.	.
.	[2A	.	2a
=6	=6	=6	=6
0r	4A]	1a	1cc
.	4G	.	.
.	2A	.	.
.	1E	1g	1b
=7	=7	=7	=7
0A	2r	2a	0e
.	2.A	1cc	.
.	4B	.	.
.	4c	2a	.
.	4d	.	.
=8	=8	=8	=8
1A	2e	1cc	0r
.	2f	.	.
1G	1g	1b	.
=9	=9	=9	=9
2A	1r	2.e	0ee
1c	.	.	.
.	.	4f	.
.	1e	2g	.
2A	.	2a	.
=10	=10	=10	=10
1c	1e	2.g	1cc
.	.	4a	.
1B	1d	[1b	1dd
=11	=11	=11	=11
0E	1.g	2b]	1b
.	.	2.e	.
.	.	.	2.b
.	.	4f	.
.	2g	4g	.
.	.	4a	4cc
=12	=12	=12	=12
0r	1g	2b	2dd
.	.	2g	1ee
.	1f	2.a	.
.	.	.	2dd
.	.	4b	.
=13	=13	=13	=13
1A	1.e	1cc	0ee
1A	.	2r	.
.	2c	[2cc	.
=14	=14	=14	=14
1G	1d	2cc]	0r
.	.	2b	.
[1c	2r	1cc	.
.	2A	.	.
=15	=15	=15	=15
2c]	1.A	1a	1r
2c	.	.	.
1c	.	1a	1e
.	2A	.	.
=16	=16	=16	=16
1B	1E	1g	1.e
[1A	1A	[1cc	.
.	.	.	2e
=17	=17	=17	=17
1A]	1.c	2cc]	1e
.	.	2cc	.
1r	.	1cc	[1g
.	4B	.	.
.	4A	.	.
=18	=18	=18	=18
0r	4G	1b	2g]
.	4A	.	.
.	4B	.	2g
.	4c	.	.
.	2.d	1a	1f
.	4c	.	.
=19	=19	=19	=19
1A	4A	1r	1e
.	4B	.	.
.	4c	.	.
.	4d	.	.
[1A	2e	1e	2r
.	2c	.	[2a
=20	=20	=20	=20
2A]	1c	1.e	4a]
.	.	.	4b
2A	.	.	1cc
1A	1r	.	.
.	.	2e	4b
.	.	.	4a
=21	=21	=21	=21
1.c	0r	1e	4g
.	.	.	4f
.	.	.	4e
.	.	.	4d
.	.	[1g	2e
2c	.	.	2c
=22	=22	=22	=22
1B	0r	2g]	1d
.	.	2g	.
[1A	.	1f	1a
=23	=23	=23	=23
1A]	2.A	2e	2r
.	.	2.a	2e
.	4B	.	.
2r	1c	.	[1e
.	.	4b	.
[2A	.	[2cc	.
=24	=24	=24	=24
2A]	2A	2cc]	2e]
2G	2B	2b	2e
2.A	2c	1a	1e
.	2A	.	.
8GL	.	.	.
8FJ	.	.	.
=25	=25	=25	=25
1.E	1B	2g	1.g
.	.	2.b	.
.	1e	.	.
.	.	4g	.
2C	.	2cc	2g
=26	=26	=26	=26
1D	2d	2b	1f
.	2c	1a	.
1E	1B	.	[1e
.	.	2g#i	.
=27	=27	=27	=27
1r	1A	1a	1e]
1E	1e	1r	1r
=28	=28	=28	=28
2F	2d	0r	0r
2E	2c	.	.
1F	4d	.	.
.	4c	.	.
.	4B	.	.
.	4A	.	.
=29	=29	=29	=29
1E	1G	1e	1ee
1r	1r	2f	2dd
.	.	2e	2cc
=30	=30	=30	=30
0r	0r	1f	4dd
.	.	.	4cc
.	.	.	4b
.	.	.	4a
.	.	[1e	2g
.	.	.	[2cc
=31	=31	=31	=31
1A	1e	2e]	2cc]
.	.	2c	4b
.	.	.	4a
2B-X	2d	2d	2g
2A	2c	[2f	[2a
=32	=32	=32	=32
1B-i	1d	2f]	2a]
.	.	4e	2g
.	.	4d	.
[1A	1e	[1c	[1a
=33	=33	=33	=33
1A]	1r	1c]	1a]
1r	1A	1r	1cc
=34	=34	=34	=34
1c	1.e	1g	1.cc
[1c	.	[1g	.
.	2e	.	2cc
=35	=35	=35	=35
2c]	1e	2g]	1cc
2c	.	2g	.
1c	1r	1g	1r
=36	=36	=36	=36
1r	1A	0r	1.cc
[1c	1e	.	.
.	.	.	2cc
=37	=37	=37	=37
2c]	1.e	1.g	2cc
2c	.	.	2cc
2c	.	.	1cc
2c	2e	2g	.
=38	=38	=38	=38
1c	1e	2g	2g
.	.	2g	1cc
1G	1d	1g	.
.	.	.	2b
=39	=39	=39	=39
1r	2.f	1d	1a
.	8eL	.	.
.	8dJ	.	.
[1A	2.c	2e	[1cc
.	.	[2f	.
.	4B	.	.
=40	=40	=40	=40
2A]	4c	4f]	2cc]
.	4d	4e	.
2E	2e	1e	2b
1F	1A	.	1a
.	.	2d	.
=41	=41	=41	=41
0E	1B	1e	0g
.	1r	1r	.
=42	=42	=42	=42
1.E	1.B	1.e	1.g
2E	2B	2e	2g
=43	=43	=43	=43
0G	0B	0d	0g
=44	=44	=44	=44
0C	1G	0c	0e
.	1g	.	.
=45	=45	=45	=45
1c	2g	0r	1r
.	2g	.	.
2c	1g	.	1cc
2c	.	.	.
=46	=46	=46	=46
1c	1e	0r	2cc
.	.	.	2cc
1A	1a	.	1cc
=47	=47	=47	=47
1.c	1g	1cc	0r
.	2e	2cc	.
2B	2g	2cc	.
=48	=48	=48	=48
2A	2c	1cc	1e
2G	1e	.	.
1F	.	1a	1f
.	2d	.	.
=49	=49	=49	=49
0E	0e	1cc	1g
.	.	1b	1g
=50	=50	=50	=50
2r	0r	2a	2f
2G	.	2g	1e
2A	.	1f	.
2B	.	.	2d
=51	=51	=51	=51
1.c	1r	2e	1e
.	.	2g	.
.	2r	2a	1r
2B	2d	2b	.
=52	=52	=52	=52
1A	2e	1.cc	0r
.	2f	.	.
1G	[1g	.	.
.	.	2b	.
=53	=53	=53	=53
1r	2g]	1a	2r
.	2f	.	2a
2r	1e	2g	2b
2A	.	2a	2cc
=54	=54	=54	=54
2.B-X	2.d	2f	1.dd
.	.	2b-X	.
4c	4e	.	.
2d	2f	2.a	.
2A	[2e	.	2cc
.	.	4g	.
=55	=55	=55	=55
2B-X	4e]	2f	1b-X
.	4d	.	.
2G	1d	2g	.
1A	.	1e	1a
.	2c#i	.	.
=56	=56	=56	=56
1D	1d	1f	1a
1E	2r	1e	1g
.	2G	.	.
=57	=57	=57	=57
1F	1c	1a	1f
1D	1d	1a	1f
=58	=58	=58	=58
[0E	1.B	0g	1e
.	.	.	1r
.	4A	.	.
.	4G	.	.
=59	=59	=59	=59
0E]	0G	1r	1.e
.	.	[1b	.
.	.	.	2e
=60	=60	=60	=60
0r	0r	2b]	1e
.	.	2b	.
.	.	1b	1d
=61	=61	=61	=61
1r	0r	1a	1f
[1E	.	1cc	1e
=62	=62	=62	=62
2E]	1.B	1b	0r
2E	.	.	.
1E	.	1r	.
.	2B	.	.
=63	=63	=63	=63
1D	1B	0r	0r
1F	1A	.	.
=64	=64	=64	=64
1E	1c	1r	1r
[1G	2B	[1b	[1g
.	[2d	.	.
=65	=65	=65	=65
2G]	2d]	2b]	2g]
2G	2d	2b	2g
2G	2d	2b	2g
2G	2d	2b	2g
=66	=66	=66	=66
1C	1e	1cc	2g
.	.	.	1g
1G	2d	2b	.
.	2g	[2dd	[2d
=67	=67	=67	=67
1D	4f	4dd]	4d]
.	4e	4cc	4e
.	4d	4b	2f
.	4c	4a	.
2E	2B	2g	2e
2F	2A	[2a	2d
=68	=68	=68	=68
1E	1B	2a]	1e
.	.	2g#i	.
1A	1A	1a	2c
.	.	.	[2e
=69	=69	=69	=69
0r	0E	2r	2e]
.	.	1b	2e
.	.	.	1e
.	.	2b	.
=70	=70	=70	=70
0r	0r	1b	1d
.	.	1a	1f
=71	=71	=71	=71
1.E	1r	1cc	1e
.	[1B	1b	1r
2E	.	.	.
=72	=72	=72	=72
1E	2B]	0r	0r
.	2B	.	.
1D	1B	.	.
=73	=73	=73	=73
1F	1A	0r	0r
1E	1c	.	.
=74	=74	=74	=74
1.G	2B	1.g	1.b
.	1d	.	.
2G	2d	2g	2b
=75	=75	=75	=75
2G	2d	2g	2b
2G	2d	2g	2b
1C	1e	1g	1cc
=76	=76	=76	=76
1G	2d	2g	2b
.	2g	2.d	2.dd
1D	4f	.	.
.	4e	4e	4cc
.	4d	2f	4b
.	4c	.	4a
=77	=77	=77	=77
2E	2B	2e	2g
2F	2A	2d	1a
1E	1B	1e	.
.	.	.	2g#i
=78	=78	=78	=78
00Al	00Al	00el	00al
==	==	==	==
*-	*-	*-	*-
!!!system-decoration: [*]
!!!RDF**kern: i = editorial accidental
!!!RDF**kern: l = terminal long
!!!ENC: Benjamin Ory
!!!END: 2021/1/14
!!!EED: Benjamin Ory
!!!EEV: 2021/04/23
!!!YEC: Copyright 2021 Benjamin Ory, All Rights Reserved
!!!ONB: Translated from MusicXML on 2021/04/23
